Adwaita++-Light/panel/24/teamviewer-indicator-connected.svg

<svg height="24" width="24" xmlns="http://www.w3.org/2000/svg">
  <path d="m21.587042 14.915801 1.412958 1.412843-4.252463 4.252517.0059.006-1.414862 1.412839-4.238575-4.238529 1.412758-1.412844 2.82192 2.819691zm-7.587042-5.9158008v1.9999998h-4v-1.9999998l-2.9999998 2.9999998 2.9999998 3v-2h4v2l3-3zm6 2.9999998c-.0016 1.571558-.467437 3.108196-1.336919 4.417323l-1.335597 1.335584-2.821662-2.821631-2.831359 2.821631 2.050336 2.050313c-.566096.127349-1.144559.194543-1.724799.196779-4.4172782 0-8.0000001-3.582769-8.0000001-8 0-4.4172314 3.5825721-8.0001504 8.0000001-8.0000004 4.417428.0001514 8 3.5827708 8 8.0000014z" fill="#444"/>
</svg>

<svg xmlns="http://www.w3.org/2000/svg" width="24" height="24" version="1.1">
 <defs>
  <style id="current-color-scheme" type="text/css">
   .ColorScheme-Text { color:#444444; } .ColorScheme-Highlight { color:#4285f4; }
  </style>
 </defs>
 <g>
  <path style="fill:currentColor" class="ColorScheme-Text" d="M 21.587042,14.915801 23,16.328644 l -4.252463,4.252517 0.0059,0.006 L 17.338575,22 13.1,17.761471 l 1.412758,-1.412844 2.82192,2.819691 z M 14,9.0000002 14,11 10,11 10,9.0000002 7.0000002,12 10,15 l 0,-2 4,0 0,2 3,-3 z M 20,12 c -0.0016,1.571558 -0.467437,3.108196 -1.336919,4.417323 l -1.335597,1.335584 -2.821662,-2.821631 -2.831359,2.821631 2.050336,2.050313 C 13.158703,19.930569 12.58024,19.997763 12,19.999999 c -4.4172782,0 -8.0000001,-3.582769 -8.0000001,-8 C 3.9999999,7.5827676 7.582572,3.9998486 12,3.9999986 16.417428,4.00015 20,7.5827694 20,12 Z"/>
 </g>
</svg>
